source/img/module-3/img/primary-award-from.svg

<svg xmlns="http://www.w3.org/2000/svg" viewBox="0 0 350 330">
  <defs>
    <clipPath id="window">
      <path d="M275,225.43H257.87a17.6,17.6,0,0,1-17.52-17.58V170a17.6,17.6,0,0,1,17.52-17.58H275A17.6,17.6,0,0,1,292.51,170v37.83A17.61,17.61,0,0,1,275,225.43Z"/>
    </clipPath>
  </defs>

  <g style="transform-origin: 50% 50%" id="airship">
    <animate begin="2.15s" dur="0.75s" attributeName="opacity" from="1" to="0" fill="freeze" />
    <g id="tail-back">
      <animateTransform attributeName="transform" values="0, 0; 0, -2; 0, 0; 0, 2; 0, 0" dur="2s" repeatCount="indefinite" />
      <path d="M123.23,173.34h9.16a3.29,3.29,0,0,1,3.29,3.3v5.71a3.29,3.29,0,0,1-3.29,3.3H115.57a1.32,1.32,0,0,1-1.32-1.32v-2a9,9,0,0,1,9-9" fill="#068e4d"/>
      <path d="M123.23,173.34h9.16a3.29,3.29,0,0,1,3.29,3.3v5.71a3.29,3.29,0,0,1-3.29,3.3H115.57a1.32,1.32,0,0,1-1.32-1.32v-2A9,9,0,0,1,123.23,173.34Z" fill="none" stroke="#fff" stroke-linecap="round" stroke-linejoin="round" stroke-width="2"/>
      <path d="M123.23,207.39h9.16a3.29,3.29,0,0,0,3.29-3.3v-5.71a3.29,3.29,0,0,0-3.29-3.3H115.57a1.32,1.32,0,0,0-1.32,1.32v2a9,9,0,0,0,9,9" fill="#068e4d"/>
      <path d="M123.23,207.39h9.16a3.29,3.29,0,0,0,3.29-3.3v-5.71a3.29,3.29,0,0,0-3.29-3.3H115.57a1.32,1.32,0,0,0-1.32,1.32v2A9,9,0,0,0,123.23,207.39Z" fill="none" stroke="#fff" stroke-linecap="round" stroke-linejoin="round" stroke-width="2"/>
    </g>

    <g id="basket">
      <animateTransform attributeName="transform" type="scale" values="1 1; 1 0.96; 1 1; 1 0.99; 1 1" dur="2s" additive="sum" repeatCount="3" fill="freeze" />
      <animateTransform attributeName="transform" type="skewY" values="0; 2; 0; -0.5; 0" dur="2s" additive="sum" repeatCount="3" fill="freeze" />
      <path d="M175.44,249.28h48.36a13.27,13.27,0,0,0,13-10.65l3.74-18.32H172.36v25.89A3.09,3.09,0,0,0,175.44,249.28Z" fill="none" stroke="#fff" stroke-linecap="round" stroke-linejoin="round" stroke-width="2"/>
      <path d="M235.79,241.69h-9.22a8.31,8.31,0,0,1-8.28-8.31V220.31" fill="none" stroke="#fff" stroke-linecap="round" stroke-miterlimit="10" stroke-width="2"/>
      <path d="M204.25,231.88h-2.05a3.45,3.45,0,0,0-3.43,3.45v2.92a3.45,3.45,0,0,0,3.43,3.45h2.05a3.45,3.45,0,0,0,3.43-3.45v-2.92A3.44,3.44,0,0,0,204.25,231.88Z" fill="none" stroke="#fff" stroke-linecap="round" stroke-linejoin="round" stroke-width="2">
        <animate attributeName="opacity" begin="2.25s" from="1" to="0" fill="freeze" dur="50ms" />
      </path>
      <path d="M185.64,231.88h-2.05a3.45,3.45,0,0,0-3.43,3.45v2.92a3.45,3.45,0,0,0,3.43,3.45h2.05a3.45,3.45,0,0,0,3.43-3.45v-2.92A3.45,3.45,0,0,0,185.64,231.88Z" fill="none" stroke="#fff" stroke-linecap="round" stroke-linejoin="round" stroke-width="2"/>
    </g>

    <path d="M205,227.08c43.38,0,74.86-15.55,74.86-37s-31.48-37-74.86-37c-27.94,0-55.36,13.53-73.46,24.87a14.3,14.3,0,0,0,0,24.21c18.09,11.33,45.52,24.87,73.46,24.87" fill="#068e4d"/>
    <path d="M205,227.08c43.38,0,74.86-15.55,74.86-37s-31.48-37-74.86-37c-27.94,0-55.36,13.53-73.46,24.87a14.3,14.3,0,0,0,0,24.21C149.63,213.54,177.06,227.08,205,227.08Z" fill="none" stroke="#fff" stroke-width="2"/>
    <path d="M127.612 183.901C126.546 185.908 126.028 188.159 126.11 190.43C126.11 190.3 278.63 190.19 278.63 190.07C278.63 170.32 249.8 154.32 204.99 154.32C176.76 154.32 148.92 168.5 132.18 179C130.253 180.204 128.678 181.894 127.612 183.901Z" fill="#36E69A"/>
    <path d="M132.18,195.12c16.74,4.27,44.58,10,72.81,10,44.14,0,72.75-6.32,73.6-14.18-0.86,19.34-29.45,34.86-73.6,34.86-28.23,0-56.07-14.19-72.81-24.68a12.88,12.88,0,0,1-6-10.18c0.26,1.61,2.26,3.18,6,4.14" fill="#068e4d"/>
    <path d="M132.18 186.12C148.92 181.85 176.76 176.12 204.99 176.12C249.52 176.12 278.25 182.55 278.6 190.5C278.6 190.67 278.6 190.84 278.6 191.01C277.75 198.87 249.15 205.18 205 205.18C176.77 205.18 148.93 199.42 132.19 195.18C128.4 194.18 126.4 192.65 126.19 191.05V190.54C126.32 188.85 128.34 187.18 132.29 186.17" fill="#25b774">
      <animate repeatCount="2" attributeName="d" dur="2s"
        values="
        M132.18 186.12C148.92 181.85 176.76 176.12 204.99 176.12C249.52 176.12 278.25 182.55 278.6 190.5C278.6 190.67 278.6 190.84 278.6 191.01C277.75 198.87 249.15 205.18 205 205.18C176.77 205.18 148.93 199.42 132.19 195.18C128.4 194.18 126.4 192.65 126.19 191.05V190.54C126.32 188.85 128.34 187.18 132.29 186.17;
        M132.18 186.12C148.92 181.85 176.77 181.5 205 181.5C249.53 181.5 278.25 182.55 278.6 190.5C278.6 190.67 278.6 190.84 278.6 191.01C277.75 198.87 249.15 207.5 205 207.5C176.77 207.5 148.93 199.42 132.19 195.18C128.4 194.18 126.4 192.65 126.19 191.05V190.54C126.32 188.85 128.34 187.18 132.29 186.17;
        M132.18 186.12C148.92 181.85 176.76 176.12 204.99 176.12C249.52 176.12 278.25 182.55 278.6 190.5C278.6 190.67 278.6 190.84 278.6 191.01C277.75 198.87 249.15 205.18 205 205.18C176.77 205.18 148.93 199.42 132.19 195.18C128.4 194.18 126.4 192.65 126.19 191.05V190.54C126.32 188.85 128.34 187.18 132.29 186.17;
        M132.18 186.12C148.92 181.85 176.77 172 205 172C249.53 172 278.25 182.55 278.6 190.5C278.6 190.67 278.6 190.84 278.6 191.01C277.75 198.87 249.15 200.5 205 200.5C176.77 200.5 148.93 199.42 132.19 195.18C128.4 194.18 126.4 192.65 126.19 191.05V190.54C126.32 188.85 128.34 187.18 132.29 186.17;
        M132.18 186.12C148.92 181.85 176.76 176.12 204.99 176.12C249.52 176.12 278.25 182.55 278.6 190.5C278.6 190.67 278.6 190.84 278.6 191.01C277.75 198.87 249.15 205.18 205 205.18C176.77 205.18 148.93 199.42 132.19 195.18C128.4 194.18 126.4 192.65 126.19 191.05V190.54C126.32 188.85 128.34 187.18 132.29 186.17
        "/>
    </path>

    <g id="tail-front">
      <animateTransform attributeName="transform" values="0, 0; 0, 2; 0, 0; 0, -2; 0, 0" dur="2s" repeatCount="indefinite" />
      <path d="M123.23,173.34h9.16a3.29,3.29,0,0,1,3.29,3.3v5.71a3.29,3.29,0,0,1-3.29,3.3H115.57a1.32,1.32,0,0,1-1.32-1.32v-2a9,9,0,0,1,9-9" fill="#068e4d"/>
      <path d="M123.23,173.34h9.16a3.29,3.29,0,0,1,3.29,3.3v5.71a3.29,3.29,0,0,1-3.29,3.3H115.57a1.32,1.32,0,0,1-1.32-1.32v-2A9,9,0,0,1,123.23,173.34Z" fill="none" stroke="#fff" stroke-linecap="round" stroke-linejoin="round" stroke-width="2"/>
      <path d="M123.23,207.39h9.16a3.29,3.29,0,0,0,3.29-3.3v-5.71a3.29,3.29,0,0,0-3.29-3.3H115.57a1.32,1.32,0,0,0-1.32,1.32v2a9,9,0,0,0,9,9" fill="#068e4d"/>
      <path d="M123.23,207.39h9.16a3.29,3.29,0,0,0,3.29-3.3v-5.71a3.29,3.29,0,0,0-3.29-3.3H115.57a1.32,1.32,0,0,0-1.32,1.32v2A9,9,0,0,0,123.23,207.39Z" fill="none" stroke="#fff" stroke-linecap="round" stroke-linejoin="round" stroke-width="2"/>
    </g>
  </g>

  <g style="opacity: 0" id="basket-window">
    <animate attributeName="opacity" begin="2.25s" from="0" to="1" fill="freeze" dur="50ms" />
    <path d="M275 225.43H257.87C253.22 225.409 248.766 223.548 245.484 220.254C242.201 216.96 240.355 212.501 240.35 207.85V170C240.355 165.349 242.201 160.89 245.484 157.596C248.766 154.302 253.22 152.441 257.87 152.42H275C279.649 152.444 284.099 154.306 287.38 157.6C290.661 160.893 292.505 165.351 292.51 170V207.83C292.507 212.481 290.665 216.943 287.384 220.24C284.103 223.538 279.651 225.404 275 225.43V225.43Z" fill="none" stroke="#fff" stroke-linecap="round" stroke-linejoin="round" stroke-width="2">
      <animate attributeName="d" fill="freeze" begin="2.25s" dur="300ms" values="
          M204.95 242.43H202.503C201.839 242.427 201.202 242.161 200.733 241.691C200.264 241.22 200.001 240.583 200 239.919V234.511C200.001 233.847 200.264 233.21 200.733 232.739C201.202 232.269 201.839 232.003 202.503 232H204.95C205.614 232.003 206.25 232.269 206.719 232.74C207.187 233.21 207.451 233.847 207.451 234.511V239.916C207.451 240.58 207.188 241.218 206.719 241.689C206.25 242.16 205.614 242.426 204.95 242.43V242.43Z;
          M275 225.43H257.87C253.22 225.409 248.766 223.548 245.484 220.254C242.201 216.96 240.355 212.501 240.35 207.85V170C240.355 165.349 242.201 160.89 245.484 157.596C248.766 154.302 253.22 152.441 257.87 152.42H275C279.649 152.444 284.099 154.306 287.38 157.6C290.661 160.893 292.505 165.351 292.51 170V207.83C292.507 212.481 290.665 216.943 287.384 220.24C284.103 223.538 279.651 225.404 275 225.43V225.43Z"/>
    </path>
  </g>

  <g clip-path="url(#window)">
  <g>
      <animateTransform attributeName="transform" begin="3s" from="300 160" to="-100 160" dur="3s" />
      <animate attributeName="opacity" begin="5s" from="1" to="0" fill="freeze" dur="250ms" />
      <line x1="28.18" y1="38.34" x2="91.09" y2="38.34" fill="none" stroke="#fff" stroke-linecap="round" stroke-miterlimit="10" stroke-width="2"/>
      <path d="M41.77,97.54H77.06a12.4,12.4,0,1,1,24.8,0h17.93" transform="translate(-40.77 -69.46)" fill="none" stroke="#fff" stroke-linecap="round" stroke-miterlimit="10" stroke-width="2"/>
      <line x1="218.19" y1="23.72" x2="257.97" y2="23.72" fill="none" stroke="#fff" stroke-linecap="round" stroke-miterlimit="10" stroke-width="2"/>
      <path d="M278.75,82.91H251.39a12.4,12.4,0,1,0-24.8,0H208.65" transform="translate(-40.77 -69.46)" fill="none" stroke="#fff" stroke-linecap="round" stroke-miterlimit="10" stroke-width="2"/>
      <line x1="246.24" y1="13.45" x2="268.43" y2="13.45" fill="none" stroke="#fff" stroke-linecap="round" stroke-miterlimit="10" stroke-width="2"/>
  </g>
  </g>

  <g style="opacity: 0; transform-origin: 50% 50%;" id="cloud-bottom">
    <animate dur="2s" attributeName="opacity" values="0; 1; 1; 0" keyTimes="0; 0.15; 0.8; 1" fill="freeze" />
    <animateTransform attributeName="transform" from="250 0" to="0 0" dur="2s" additive="sum" />
    <g style="transform-origin: 50% 50%;">
      <animateTransform attributeName="transform" from="-20 0" to="0 0" dur="2s" />
      <line x1="68.95" y1="107.8" x2="131.86" y2="107.8" fill="none" stroke="#fff" stroke-linecap="round" stroke-miterlimit="10" stroke-width="2"/>
    </g>
    <path d="M41.77,97.54H77.06a12.4,12.4,0,1,1,24.8,0h17.93" fill="none" stroke="#fff" stroke-linecap="round" stroke-miterlimit="10" stroke-width="2"/>
  </g>

  <g style="opacity: 0" id="cloud-top">
    <animate begin="1s" dur="2s" attributeName="opacity" values="0; 1; 1; 0" keyTimes="0; 0.15; 0.8; 1" fill="freeze" />
    <animateTransform attributeName="transform" begin="1s" from="100 0" to="-250 0" dur="3s" />
    <line x1="258.96" y1="93.19" x2="298.74" y2="93.19" fill="none" stroke="#fff" stroke-linecap="round" stroke-miterlimit="10" stroke-width="2"/>
    <path d="M278.75,82.91H251.39a12.4,12.4,0,1,0-24.8,0H208.65" fill="none" stroke="#fff" stroke-linecap="round" stroke-miterlimit="10" stroke-width="2"/>
    <line x1="287.01" y1="82.91" x2="309.21" y2="82.91" fill="none" stroke="#fff" stroke-linecap="round" stroke-miterlimit="10" stroke-width="2"/>
  </g>

  <g id="wind">
    <animate begin="2.15s" dur="0.75s" attributeName="opacity" from="1" to="0" fill="freeze" />
    <line x1="106.25" y1="179.49" x2="84.05" y2="179.49" fill="none" stroke="#fff" stroke-linecap="round" stroke-miterlimit="10" stroke-width="2">
      <animate attributeName="x2" values="89; 85; 88; 85; 91; 84; 89" dur="1s" repeatCount="indefinite"  />
    </line>
    <line x1="106.25" y1="201.23" x2="84.05" y2="201.23" fill="none" stroke="#fff" stroke-linecap="round" stroke-miterlimit="10" stroke-width="2">
      <animate attributeName="x2" values="85; 89; 84; 88; 85; 91; 84; 85" dur="1s" repeatCount="indefinite"  />
    </line>
    <line x1="106.25" y1="190.98" x2="68.77" y2="190.98" fill="none" stroke="#fff" stroke-linecap="round" stroke-miterlimit="10" stroke-width="2">
      <animate attributeName="x2" values="69; 75; 71; 76; 70; 74; 69" dur="1s" repeatCount="indefinite"  />
    </line>
  </g>

  <g id="rock">
    <path d="M289.94,327.88H244.88L212.8,296.58a1.89,1.89,0,0,0-2.44,0l-10.2,10.23a1.72,1.72,0,0,1-2.25,0l-19-20.17a2.4,2.4,0,0,0-3.1,0l-26.42,25.64a1.71,1.71,0,0,1-2.25,0l-2.63-2.92a1.71,1.71,0,0,0-2.31,0L124.63,329H80.78" fill="none" stroke="#fff" stroke-linecap="round" stroke-miterlimit="10" stroke-width="2">
      <animate attributeName="d" dur="0.5s" begin="2s" fill="freeze"
          values="
          M289.94 327.88H244.88L212.8 296.58C212.459 296.292 212.027 296.134 211.58 296.134C211.133 296.134 210.701 296.292 210.36 296.58L200.16 306.81C199.847 307.08 199.448 307.229 199.035 307.229C198.622 307.229 198.223 307.08 197.91 306.81L178.91 286.64C178.477 286.273 177.928 286.072 177.36 286.072C176.792 286.072 176.243 286.273 175.81 286.64L149.39 312.28C149.078 312.552 148.679 312.702 148.265 312.702C147.851 312.702 147.452 312.552 147.14 312.28L144.51 309.36C144.195 309.071 143.783 308.911 143.355 308.911C142.927 308.911 142.515 309.071 142.2 309.36L124.63 329H80.78;
          M289.94 327.88H244.88L216.5 327C216.159 326.712 211.447 327 211 327C210.553 327 206.841 326.712 206.5 327L201.5 328.5C201.187 328.77 197.913 329 197.5 329C197.087 329 195.313 329.27 195 329L184.5 327.5C184.067 327.133 174.568 326 174 326C173.432 326 169.933 326.133 169.5 326.5L156 328C155.688 328.272 149.414 328.5 149 328.5C148.586 328.5 146.312 328.772 146 328.5L144.5 328C144.185 327.711 142.428 327.5 142 327.5C141.572 327.5 139.315 327.711 139 328L124.63 329H80.78"
      />
      <animate begin="2.35s" dur="0.15s" attributeName="opacity" from="1" to="0" fill="freeze" />
    </path>
    <path opacity="0" d="M289.94,328H200.15c-0.86,0-1.56,0-2.25,0h-19c-1.5,0-2.23,0-3.1,0h-32.3c-1.09,0-1.66,0-2.31,0H80.78" fill="none" stroke="#fff" stroke-linecap="round" stroke-miterlimit="10" stroke-width="2">
      <animate begin="2.4s" dur="0.1s" attributeName="opacity" from="0" to="1" fill="freeze" />
    </path>
  </g>

  <g style="opacity: 0" id="ski">
    <animate begin="2.75s" dur="0.25s" attributeName="opacity" from="0" to="1" fill="freeze" />
    <animateTransform attributeName="transform" begin="2.7s" from="-50 0" to="0 0" dur="0.25s" />
    <path d="M91.14,327.79a2.2,2.2,0,0,1-2-2.36l13.66-193.17c1.1-15.49-4.8-21.92-8.75-24.47a1.35,1.35,0,0,1,.53-2.45C103,104,122.18,104,120,134.19L106.43,326.67a2.2,2.2,0,0,1-2.35,2Z" fill="#fff"/>
    <path d="M124.5,328.17a2.2,2.2,0,0,1-2.17-2.23l2.24-193.63c0.19-15.53-6.07-21.61-10.16-23.91a1.35,1.35,0,0,1,.39-2.47c8.36-1.9,27.49-3,27.15,27.28l-2.25,192.93a2.2,2.2,0,0,1-2.22,2.18Z" fill="#fff"/>
  </g>

  <g style="opacity: 0" id="chair">
    <animate begin="2.5s" dur="0.3s" attributeName="opacity" from="0" to="1" fill="freeze" />
    <animateTransform attributeName="transform" begin="2.5s" from="-150 0" to="0 0" dur="0.2s" />
    <path d="M257.5,259.82H196.76V245.63h55.09a9.92,9.92,0,0,1,9.9,9.93,4.26,4.26,0,0,1-4.25,4.25" fill="#a67ee5"/>
    <path d="M257.5,259.82H196.76V245.63h55.09a9.92,9.92,0,0,1,9.9,9.93A4.26,4.26,0,0,1,257.5,259.82Z" fill="none" stroke="#fff" stroke-miterlimit="10" stroke-width="2"/>
    <polygon points="185.47 328.31 171.5 328.31 165.19 286.72 179.16 286.72 185.47 328.31" fill="#a67ee5"/>
    <polygon points="185.47 328.31 171.5 328.31 165.19 286.72 179.16 286.72 185.47 328.31" fill="none" stroke="#fff" stroke-miterlimit="10" stroke-width="2"/>
    <polygon points="235.03 328.31 221.06 328.31 214.76 286.72 228.72 286.72 235.03 328.31" fill="#a67ee5"/>
    <polygon points="235.03 328.31 221.06 328.31 214.76 286.72 228.72 286.72 235.03 328.31" fill="none" stroke="#fff" stroke-miterlimit="10" stroke-width="2"/>
    <path d="M281.33,272.45H225.44a5.59,5.59,0,0,1-5.53-4.77l-10.86-72.24a17.71,17.71,0,0,0-12.49-31.31H141.48L141.16,267l15.77,23.35,47.19,8.39a12.3,12.3,0,0,0,4.22.75h73a13.53,13.53,0,0,0,0-27.06" fill="#a67ee5"/>
    <path d="M281.33,272.45H225.44a5.59,5.59,0,0,1-5.53-4.77l-10.86-72.24a17.71,17.71,0,0,0-12.49-31.31H141.48L141.16,267l15.77,23.35,47.19,8.39a12.3,12.3,0,0,0,4.22.75h73A13.53,13.53,0,0,0,281.33,272.45Z" fill="none" stroke="#fff" stroke-miterlimit="10" stroke-width="2"/>
    <path d="M162.42,267.69l-10.86-72.24a17.71,17.71,0,1,0-29-13.61,18,18,0,0,0,.79,5.25L138.65,289a12.36,12.36,0,0,0,12.21,10.54h73a13.53,13.53,0,0,0,0-27.05H167.95a5.62,5.62,0,0,1-5.53-4.78" fill="#a67ee5"/>
    <path d="M162.42,267.69l-10.86-72.24a17.71,17.71,0,1,0-29-13.61,18,18,0,0,0,.79,5.25L138.65,289a12.36,12.36,0,0,0,12.21,10.54h73a13.53,13.53,0,0,0,0-27.05H167.95A5.62,5.62,0,0,1,162.42,267.69Z" fill="none" stroke="#fff" stroke-miterlimit="10" stroke-width="2"/>
    <path d="M206.26,259.82h-72l-2.13-14.19H200.6a9.92,9.92,0,0,1,9.9,9.93,4.26,4.26,0,0,1-4.25,4.25" fill="#a67ee5"/>
    <path d="M206.26,259.82h-72l-2.13-14.19H200.6a9.92,9.92,0,0,1,9.9,9.93A4.26,4.26,0,0,1,206.26,259.82Z" fill="none" stroke="#fff" stroke-miterlimit="10" stroke-width="2"/>
    <line x1="151.57" y1="195.44" x2="209.05" y2="195.44" fill="none" stroke="#fff" stroke-linecap="round" stroke-miterlimit="10" stroke-width="2"/>
  </g>

  <g style="opacity: 0; transform-origin: 50% 100%;" id="plant">
    <animate begin="2.75s" dur="0.3s" attributeName="opacity" from="0" to="1" fill="freeze" />
    <animateTransform attributeName="transform" begin="2.7s" from="-50 0" to="0 0" dur="0.3s" additive="sum" />
    <animateTransform attributeName="transform" type="skewX" values="0; -3; 0; -3; 0" dur="1s" begin="2.9s" additive="sum" fill="freeze" />
    <animateTransform attributeName="transform" type="skewY" values="0; 3; 0; 3; 0" dur="1s" begin="2.9s" additive="sum" fill="freeze" />
    <path d="M79.18,194A131,131,0,0,1,94.77,220.9a255,255,0,0,1-20.08-23.55,259,259,0,0,1-17.07-25.88A131.72,131.72,0,0,1,79.18,194" fill="#36e69a"/>
    <path d="M80.94,214.39a127.19,127.19,0,0,1,22.8,20.49A242.09,242.09,0,0,1,77.9,219.17a235.86,235.86,0,0,1-23.42-18.7,119.82,119.82,0,0,1,26.46,13.92" fill="#36e69a"/>
    <path d="M93.66,205.48a258.38,258.38,0,0,0,10.08,29.39,125.63,125.63,0,0,0-4.5-30.52,135.9,135.9,0,0,0-12.06-29.44,260.33,260.33,0,0,0,6.47,30.57" fill="#36e69a"/>
    <path d="M107.32,213.52a250.14,250.14,0,0,0,2.06,30.67,119.93,119.93,0,0,0,3.76-30.05,131.24,131.24,0,0,0-4-31.36,238.1,238.1,0,0,0-1.87,30.74" fill="#25b774"/>
    <path d="M83.08,229.56a121.93,121.93,0,0,1,26.29,14.64A225.91,225.91,0,0,1,81.21,235a228.11,228.11,0,0,1-26.37-12.69,113.61,113.61,0,0,1,28.25,7.29" fill="#25b774"/>
    <path d="M88.06,243.83A118.11,118.11,0,0,1,115.62,255a211,211,0,0,1-28.78-5.6,220.87,220.87,0,0,1-27.42-9.33,114,114,0,0,1,28.65,3.73" fill="#25b774"/>
    <path d="M118.71,224.79a238,238,0,0,0-3.1,30.25,117.11,117.11,0,0,0,8.82-28.54,127.44,127.44,0,0,0,1.42-31.19,213.92,213.92,0,0,0-7.15,29.48" fill="#25b774"/>
    <path d="M98.86,262a118.24,118.24,0,0,1,27.07,12.34,212.3,212.3,0,0,1-28.53-6.79,220.78,220.78,0,0,1-27-10.45A114.06,114.06,0,0,1,98.86,262" fill="#068e4d"/>
    <path d="M130.27,244.29a236.56,236.56,0,0,0-4.34,30.1,116.94,116.94,0,0,0,10-28.16,127.42,127.42,0,0,0,2.71-31.1,214.43,214.43,0,0,0-8.36,29.16" fill="#068e4d"/>
    <path d="M108.9,280.69a118.21,118.21,0,0,1,26.54,13.47,213.62,213.62,0,0,1-28.23-8,221.65,221.65,0,0,1-26.55-11.57,113.82,113.82,0,0,1,28.24,6.08" fill="#068e4d"/>
    <path d="M141,264.26a236.09,236.09,0,0,0-5.58,29.9,117.46,117.46,0,0,0,11.15-27.73,127.2,127.2,0,0,0,4-31A214.24,214.24,0,0,0,141,264.26" fill="#068e4d"/>
    <path d="M92.62,217.67A529.26,529.26,0,0,1,149.48,328" fill="none" stroke="#36e69a" stroke-linecap="round" stroke-linejoin="round" stroke-width="2"/>
  </g>
</svg>

<svg xmlns="http://www.w3.org/2000/svg" xmlns:xlink="http://www.w3.org/1999/xlink" viewBox="0 0 350 330">
  <g>
    <path d="M175.44,249.28h48.36a13.27,13.27,0,0,0,13-10.65l3.74-18.32H172.36v25.89A3.09,3.09,0,0,0,175.44,249.28Z" fill="none" stroke="#fff" stroke-linecap="round" stroke-linejoin="round" stroke-width="2"/>
    <path d="M235.79,241.69h-9.22a8.31,8.31,0,0,1-8.28-8.31V220.31" fill="none" stroke="#fff" stroke-linecap="round" stroke-miterlimit="10" stroke-width="2"/>
    <path d="M204.25,231.88h-2.05a3.45,3.45,0,0,0-3.43,3.45v2.92a3.45,3.45,0,0,0,3.43,3.45h2.05a3.45,3.45,0,0,0,3.43-3.45v-2.92A3.44,3.44,0,0,0,204.25,231.88Z" fill="none" stroke="#fff" stroke-linecap="round" stroke-linejoin="round" stroke-width="2"/>
    <path d="M185.64,231.88h-2.05a3.45,3.45,0,0,0-3.43,3.45v2.92a3.45,3.45,0,0,0,3.43,3.45h2.05a3.45,3.45,0,0,0,3.43-3.45v-2.92A3.45,3.45,0,0,0,185.64,231.88Z" fill="none" stroke="#fff" stroke-linecap="round" stroke-linejoin="round" stroke-width="2"/>
    <path d="M205,227.08c43.38,0,74.86-15.55,74.86-37s-31.48-37-74.86-37c-27.94,0-55.36,13.53-73.46,24.87a14.3,14.3,0,0,0,0,24.21c18.09,11.33,45.52,24.87,73.46,24.87" fill="#068e4d"/>
    <path d="M205,227.08c43.38,0,74.86-15.55,74.86-37s-31.48-37-74.86-37c-27.94,0-55.36,13.53-73.46,24.87a14.3,14.3,0,0,0,0,24.21C149.63,213.54,177.06,227.08,205,227.08Z" fill="none" stroke="#fff" stroke-width="2"/>
    <path d="M205,176.09c-28.23,0-56.07,5.76-72.81,10-3.95,1-6,2.66-6.08,4.34A12.93,12.93,0,0,1,132.18,179c16.74-10.5,44.58-24.68,72.81-24.68,44.81,0,73.64,16,73.64,35.75,0,0.12,0,.24,0,0.37-0.37-7.95-29.1-14.37-73.63-14.37" fill="#36e69a"/>
    <path d="M132.18,195.12c16.74,4.27,44.58,10,72.81,10,44.14,0,72.75-6.32,73.6-14.18-0.86,19.34-29.45,34.86-73.6,34.86-28.23,0-56.07-14.19-72.81-24.68a12.88,12.88,0,0,1-6-10.18c0.26,1.61,2.26,3.18,6,4.14" fill="#068e4d"/>
    <path d="M132.18,186.12c16.74-4.27,44.58-10,72.81-10,44.53,0,73.26,6.43,73.61,14.38,0,0.17,0,.34,0,0.51-0.85,7.86-29.45,14.17-73.6,14.17-28.23,0-56.07-5.76-72.81-10-3.79-1-5.79-2.53-6-4.13l0-.51c0.13-1.69,2.15-3.36,6.1-4.37" fill="#25b774"/>
    <path d="M123.23,173.34h9.16a3.29,3.29,0,0,1,3.29,3.3v5.71a3.29,3.29,0,0,1-3.29,3.3H115.57a1.32,1.32,0,0,1-1.32-1.32v-2a9,9,0,0,1,9-9" fill="#068e4d"/>
    <path d="M123.23,173.34h9.16a3.29,3.29,0,0,1,3.29,3.3v5.71a3.29,3.29,0,0,1-3.29,3.3H115.57a1.32,1.32,0,0,1-1.32-1.32v-2A9,9,0,0,1,123.23,173.34Z" fill="none" stroke="#fff" stroke-linecap="round" stroke-linejoin="round" stroke-width="2"/>
    <path d="M123.23,207.39h9.16a3.29,3.29,0,0,0,3.29-3.3v-5.71a3.29,3.29,0,0,0-3.29-3.3H115.57a1.32,1.32,0,0,0-1.32,1.32v2a9,9,0,0,0,9,9" fill="#068e4d"/>
    <path d="M123.23,207.39h9.16a3.29,3.29,0,0,0,3.29-3.3v-5.71a3.29,3.29,0,0,0-3.29-3.3H115.57a1.32,1.32,0,0,0-1.32,1.32v2A9,9,0,0,0,123.23,207.39Z" fill="none" stroke="#fff" stroke-linecap="round" stroke-linejoin="round" stroke-width="2"/>
    <path d="M123.23,173.34h9.16a3.29,3.29,0,0,1,3.29,3.3v5.71a3.29,3.29,0,0,1-3.29,3.3H115.57a1.32,1.32,0,0,1-1.32-1.32v-2a9,9,0,0,1,9-9" fill="#068e4d"/>
    <path d="M123.23,173.34h9.16a3.29,3.29,0,0,1,3.29,3.3v5.71a3.29,3.29,0,0,1-3.29,3.3H115.57a1.32,1.32,0,0,1-1.32-1.32v-2A9,9,0,0,1,123.23,173.34Z" fill="none" stroke="#fff" stroke-linecap="round" stroke-linejoin="round" stroke-width="2"/>
    <path d="M123.23,207.39h9.16a3.29,3.29,0,0,0,3.29-3.3v-5.71a3.29,3.29,0,0,0-3.29-3.3H115.57a1.32,1.32,0,0,0-1.32,1.32v2a9,9,0,0,0,9,9" fill="#068e4d"/>
    <path d="M123.23,207.39h9.16a3.29,3.29,0,0,0,3.29-3.3v-5.71a3.29,3.29,0,0,0-3.29-3.3H115.57a1.32,1.32,0,0,0-1.32,1.32v2A9,9,0,0,0,123.23,207.39Z" fill="none" stroke="#fff" stroke-linecap="round" stroke-linejoin="round" stroke-width="2"/>
  </g>
  <line x1="68.95" y1="107.8" x2="131.86" y2="107.8" fill="none" stroke="#fff" stroke-linecap="round" stroke-miterlimit="10" stroke-width="2"/>
  <g>
    <path d="M41.77,97.54H77.06a12.4,12.4,0,1,1,24.8,0h17.93" fill="none" stroke="#fff" stroke-linecap="round" stroke-miterlimit="10" stroke-width="2"/>
  </g>
  <line x1="258.96" y1="93.19" x2="298.74" y2="93.19" fill="none" stroke="#fff" stroke-linecap="round" stroke-miterlimit="10" stroke-width="2"/>
  <g>
    <path d="M278.75,82.91H251.39a12.4,12.4,0,1,0-24.8,0H208.65" fill="none" stroke="#fff" stroke-linecap="round" stroke-miterlimit="10" stroke-width="2"/>
    <line x1="287.01" y1="82.91" x2="309.21" y2="82.91" fill="none" stroke="#fff" stroke-linecap="round" stroke-miterlimit="10" stroke-width="2"/>
  </g>
  <line x1="106.25" y1="179.49" x2="84.05" y2="179.49" fill="none" stroke="#fff" stroke-linecap="round" stroke-miterlimit="10" stroke-width="2"/>
  <line x1="106.25" y1="201.23" x2="84.05" y2="201.23" fill="none" stroke="#fff" stroke-linecap="round" stroke-miterlimit="10" stroke-width="2"/>
  <line x1="106.25" y1="190.98" x2="68.77" y2="190.98" fill="none" stroke="#fff" stroke-linecap="round" stroke-miterlimit="10" stroke-width="2"/>
  <g>
    <path d="M289.94,327.88H244.88L212.8,296.58a1.89,1.89,0,0,0-2.44,0l-10.2,10.23a1.72,1.72,0,0,1-2.25,0l-19-20.17a2.4,2.4,0,0,0-3.1,0l-26.42,25.64a1.71,1.71,0,0,1-2.25,0l-2.63-2.92a1.71,1.71,0,0,0-2.31,0L124.63,329H80.78" fill="none" stroke="#fff" stroke-linecap="round" stroke-miterlimit="10" stroke-width="2"/>
    <path d="M289.94,328H200.15c-0.86,0-1.56,0-2.25,0h-19c-1.5,0-2.23,0-3.1,0h-32.3c-1.09,0-1.66,0-2.31,0H80.78" fill="none" stroke="#fff" stroke-linecap="round" stroke-miterlimit="10" stroke-width="2"/>
  </g>
</svg>
